src/assets/metronic/worbby/global/img/icon-heart.svg

<?xml version="1.0" encoding="UTF-8"?>
<svg width="90px" height="90px" viewBox="0 0 90 90" version="1.1" xmlns="http://www.w3.org/2000/svg" xmlns:xlink="http://www.w3.org/1999/xlink">
    <!-- Generator: Sketch 42 (36781) - http://www.bohemiancoding.com/sketch -->
    <title>icon-heart</title>
    <desc>Created with Sketch.</desc>
    <defs>
        <linearGradient x1="0%" y1="49.9979293%" x2="99.9874969%" y2="49.9979293%" id="linearGradient-1">
            <stop stop-color="#FFB247" offset="0%"></stop>
            <stop stop-color="#FFCB33" offset="100%"></stop>
        </linearGradient>
    </defs>
    <g id="Desktop" stroke="none" stroke-width="1" fill="none" fill-rule="evenodd">
        <g id="Desktop-About-Worbby" transform="translate(-655.000000, -2484.000000)">
            <g id="icon-heart" transform="translate(655.000000, 2484.000000)">
                <path d="M37.5,0 C16.7895,0 0,16.7895 0,37.5 L0,37.5 C0,58.2105 16.7895,75 37.5,75 L37.5,75 C58.2105,75 75,58.2105 75,37.5 L75,37.5 C75,16.7895 58.2105,0 37.5,0 Z" id="Fill-1" fill="url(#linearGradient-1)"></path>
                <path d="M38.74365,32.75835 C42.57615,32.75835 46.70115,34.82835 50.37915,38.56185 C47.17815,43.28985 45.27465,48.47685 45.15015,52.84185 C45.05115,55.90485 46.25415,59.02335 48.35115,61.17585 C50.16915,63.04935 52.54815,64.08585 55.03665,64.08585 C57.52515,64.08585 59.88915,63.06435 61.72215,61.17585 C63.81915,59.02335 65.02215,55.90485 64.92465,52.84185 C64.79865,48.46485 62.89665,43.27635 59.70765,38.56185 C63.38565,34.82835 67.51215,32.75835 71.34315,32.75835 C79.74765,32.75835 82.75515,39.31785 82.75515,45.44235 C82.75515,56.74335 65.45565,73.03635 55.05015,81.03585 C44.64615,73.02285 27.33165,56.74335 27.33165,45.42885 C27.33165,39.30285 30.32415,32.75835 38.74365,32.75835 M52.40715,53.05035 C52.46265,50.64585 53.40015,47.73585 55.03665,44.78685 C56.68665,47.73585 57.62415,50.66085 57.67965,53.05035 C57.70815,54.15585 57.26115,55.35735 56.51865,56.12835 C55.65165,57.02385 54.44865,57.03735 53.53965,56.11335 C52.81365,55.38735 52.36515,54.16935 52.40715,53.05035 M71.34315,25.49985 C65.76315,25.49985 59.98815,28.15785 55.05165,32.96835 C50.10015,28.14285 44.33715,25.49985 38.75715,25.49985 C27.58365,25.49985 20.07315,33.49935 20.07315,45.42885 C20.07315,64.58985 51.56865,87.49635 52.91115,88.47585 L55.03665,89.99985 L57.14865,88.47585 C58.49115,87.51135 90.00015,64.79835 90.00015,45.42885 C90.00015,33.49935 82.50315,25.49985 71.34315,25.49985" id="Fill-3" fill="#1E2225"></path>
            </g>
        </g>
    </g>
</svg>

<svg xmlns="http://www.w3.org/2000/svg" width="90" height="90"><defs><linearGradient id="a" x1="0%" x2="99.9875%" y1="49.9979%" y2="49.9979%"><stop stop-color="#FFB247" offset="0%"/><stop stop-color="#FFCB33" offset="100%"/></linearGradient></defs><g fill="none" fill-rule="evenodd"><path fill="url(#a)" d="M37.5 0C16.7895 0 0 16.7895 0 37.5S16.7895 75 37.5 75 75 58.2105 75 37.5 58.2105 0 37.5 0z"/><path fill="#1E2225" d="M38.7437 32.7584c3.8325 0 7.9575 2.07 11.6355 5.8034-3.201 4.728-5.1045 9.915-5.229 14.28-.099 3.063 1.104 6.1816 3.201 8.334 1.818 1.8735 4.197 2.91 6.6855 2.91 2.4884 0 4.8524-1.0215 6.6854-2.91 2.097-2.1525 3.3-5.271 3.2026-8.334-.126-4.377-2.028-9.5654-5.217-14.28 3.678-3.7334 7.8046-5.8034 11.6355-5.8034 8.4046 0 11.412 6.5594 11.412 12.684.0002 11.301-17.2993 27.594-27.7048 35.5934-10.404-8.013-27.7185-24.2924-27.7185-35.607 0-6.126 2.9924-12.6705 11.412-12.6705m13.6635 20.292c.0554-2.4044.993-5.3145 2.6294-8.2634 1.65 2.949 2.5876 5.874 2.643 8.2634.0286 1.1054-.4184 2.307-1.161 3.078-.867.8955-2.07.909-2.979-.015-.726-.726-1.1745-1.944-1.1324-3.063m18.936-27.5506c-5.58 0-11.355 2.658-16.2915 7.4686-4.9515-4.8256-10.7145-7.4686-16.2945-7.4686-11.1735 0-18.684 7.9995-18.684 19.929 0 19.161 31.4954 42.0676 32.838 43.047l2.1255 1.524 2.112-1.524c1.3424-.9645 32.8515-23.6775 32.8515-43.047 0-11.9295-7.497-19.929-18.657-19.929"/></g></svg>
